X:25
T: Ritter und Magd
N: Q0055X
O: Mitteleuropa, Deutschland (BRD) , Westfalen
N: Dritte Zeile = Refrain auf sinnfreie Silben.
R: Ballade, Betrug, Schwangerschaft, Tod, Selbstmord, Herr und Magd
M: 4/4
L: 1/8
K: D
FG | A2AAA2Bc | d2cBA2
Bc | d3BAGFG | A3FD2z2 |
GABAGBdB | BAAAA2
A2 | B2A2g2fe | d2c2d2

